X:1
T:Title
%%score 1 { 2 | 3 }
L:1/8
Q:1/4=95
M:4/4
K:G
V:1 treble nm="Grand Piano, Soprano"
V:2 treble nm="Choir Pad, Bass"
V:3 bass 
V:1
 D[DG] [GB]2 [GB][GB] [GB]2 | [DA][DG] [CE]2 [EG][EG] [EG]2 | [DF][CE] [B,D]2 [DG][GB] [Gd]2 | %3
w: By~John~Robson~Sweney * * * * *|||
 [EG][EG] [FA]6 | [GB][Ac] [Bd]2 [DG][GB] [FA]2 | [FA][GB] [Ac]2 [DF][DA] [DG]2 | %6
w: |||
 DD [CE]2 [Ec][Ec] [DB]2 | [DA][DA] [DG]6 | [GB][Ac] [Bd]6 | [_B^c][=Bd] [GB]6 | %10
w: ||||
 [FA][GB] [Fc]2 [Fd][Fe] [Fd]2 | [FA][Fc] [GB]6 | [GB][Ac] [Bd]2 [DG][GB] [FA]2 | %13
w: |||
 [FA][GB] [Ac]2 [DF][DA] [DG]2 | DD [CE]2 [Ec][Ec] [DB]2 | [DA][DA] [DG]6- | [DG]2 z2 z4 |] %17
w: ||||
V:2
 B,B, D2 DD D2 | CB, C2 CC C2 | G,G, G,2 B,D B,2 | ^CC D6 | DD D2 B,D D2 | DD D2[K:bass] A,C B,2 | %6
 G,G, G,2 G,[K:treble]G, G,2 | CC B,6 | z4 B,C D2 | z4 ^CD B,2 | DD D2[K:bass] A,A, A,2 | %11
 DD[K:treble] D2 DD D2 | DD D2 B,D D2 | DD D2[K:bass] A,C B,2 | G,G, G,2 G,G, G,2 | CC B,6- | %16
 B,2 z2 z4 |] %17
V:3
 G,G, G,2 G,G, G,2 | G,G, C,2 C,C, C,2 | C,C, G,,2 G,G, G,2 | A,A, D,6 | G,G, G,2 G,G, D,2 | %5
 D,D, D,2 D,D, G,2 | B,,B,, C,2 C,C, D,2 | D,D, [G,,G,]6 | z4 G,A, B,2 | z4 _B,=B, G,2 | %10
 CB, A,2 D,D, D,2 | D,D, G,2 G,G, G,2 | G,G, G,2 G,G, D,2 | D,D, D,2 D,D, G,2 | %14
 B,,B,, C,2 C,C, D,2 | D,D, [G,,G,]6- | [G,,G,]2 z2 z4 |] %17

